packages/icons/src/keyboard-fill.svg

<svg xmlns="http://www.w3.org/2000/svg" width="24" height="24" fill="none" viewBox="0 0 24 24">
  <path fill="#000" fill-rule="evenodd" d="M21 3H3c-1.1 0-2 .9-2 2v14c0 1.1.9 2 2 2h18c1.1 0 2-.9 2-2V5c0-1.1-.9-2-2-2Zm-5 12H8v2h8v-2ZM5 11h2v2H5v-2Zm6 0H9v2h2v-2Zm2 0h2v2h-2v-2Zm6 0h-2v2h2v-2Zm-2-4h2v2h-2V7Zm-2 0h-2v2h2V7ZM9 7h2v2H9V7ZM7 7H5v2h2V7Z" clip-rule="evenodd"/>
</svg>

<svg width="24" height="24" viewBox="0 0 24 24" fill="none" xmlns="http://www.w3.org/2000/svg">
<path fill-rule="evenodd" clip-rule="evenodd" d="M21 3H3C1.9 3 1 3.9 1 5V19C1 20.1 1.9 21 3 21H21C22.1 21 23 20.1 23 19V5C23 3.9 22.1 3 21 3ZM16 15H8V17H16V15ZM5 11H7V13H5V11ZM11 11H9V13H11V11ZM13 11H15V13H13V11ZM19 11H17V13H19V11ZM17 7H19V9H17V7ZM15 7H13V9H15V7ZM9 7H11V9H9V7ZM7 7H5V9H7V7Z" fill="black"/>
</svg>
